public/svg_assets/socials_icons/youtu.svg

<svg width="65" height="66" viewBox="0 0 65 66" fill="none" xmlns="http://www.w3.org/2000/svg">
<path d="M32.5 66C50.4492 66 65 51.2254 65 33C65 14.7746 50.4492 0 32.5 0C14.5507 0 0 14.7746 0 33C0 51.2254 14.5507 66 32.5 66Z" fill="#A1A1A1"/>
<path fill-rule="evenodd" clip-rule="evenodd" d="M47.065 21.7523C48.6139 22.1663 49.8337 23.3861 50.2477 24.935C51 27.7425 51 33.6 51 33.6C51 33.6 51 39.4575 50.2477 42.265C49.8337 43.8139 48.6139 45.0337 47.065 45.4478C44.2575 46.2 33 46.2 33 46.2C33 46.2 21.7425 46.2 18.935 45.4478C17.3861 45.0337 16.1663 43.8139 15.7523 42.265C15 39.4575 15 33.6 15 33.6C15 33.6 15 27.7425 15.7523 24.935C16.1663 23.3861 17.3861 22.1663 18.935 21.7523C21.7425 21 33 21 33 21C33 21 44.2575 21 47.065 21.7523ZM38.7526 33.6001L29.3999 39V28.2L38.7526 33.6001Z" fill="white"/>
</svg>

<svg width="65" height="66" fill="none" xmlns="http://www.w3.org/2000/svg">
    <path d="M32.5 66C50.45 66 65 51.225 65 33S50.45 0 32.5 0 0 14.775 0 33s14.55 33 32.5 33Z" fill="#A1A1A1"/>
    <path fill-rule="evenodd" clip-rule="evenodd" d="M47.065 21.752a4.508 4.508 0 0 1 3.183 3.183C51 27.743 51 33.6 51 33.6s0 5.858-.752 8.665a4.509 4.509 0 0 1-3.183 3.183C44.258 46.2 33 46.2 33 46.2s-11.258 0-14.065-.752a4.509 4.509 0 0 1-3.183-3.183C15 39.458 15 33.6 15 33.6s0-5.858.752-8.665a4.508 4.508 0 0 1 3.183-3.183C21.743 21 33 21 33 21s11.258 0 14.065.752ZM38.753 33.6 29.4 39V28.2l9.353 5.4Z" fill="#fff"/>
</svg>
